dist/svg/u1F45B.svg

<?xml version="1.0" encoding="UTF-8"?><svg id="a" xmlns="http://www.w3.org/2000/svg" viewBox="0 0 40 40"><g><path d="M8.801,5.74h26.114c.599,0,1.085,.486,1.085,1.085v26.349c0,.599-.486,1.085-1.085,1.085H8.801c-2.65,0-4.801-2.151-4.801-4.801V10.541c0-2.65,2.151-4.801,4.801-4.801Z" fill="#956759"/><path d="M23.041,15.951h12.959v8.098h-12.959c-1.494,0-2.707-1.213-2.707-2.707v-2.683c0-1.494,1.213-2.707,2.707-2.707Z" fill="#c29d92"/><circle cx="24.569" cy="20" r="2.423" fill="#5e403b"/></g><rect width="40" height="40" fill="none"/></svg>

<svg id="Layer_1" data-name="Layer 1" xmlns="http://www.w3.org/2000/svg" viewBox="0 0 40 40"><defs><style>.cls-1{fill:#956759;}.cls-2{fill:#c29d92;}.cls-3{fill:#5e403b;}.cls-4{fill:none;}</style></defs><path class="cls-1" d="M8.8,5.74H34.915A1.085,1.085,0,0,1,36,6.825V33.175a1.085,1.085,0,0,1-1.085,1.085H8.8a4.8,4.8,0,0,1-4.8-4.8V10.541A4.8,4.8,0,0,1,8.8,5.74Z"/><path class="cls-2" d="M23.041,15.951H36a0,0,0,0,1,0,0v8.1a0,0,0,0,1,0,0H23.041a2.707,2.707,0,0,1-2.707-2.707V18.659A2.707,2.707,0,0,1,23.041,15.951Z"/><circle class="cls-3" cx="24.569" cy="20" r="2.423"/><rect class="cls-4" width="40" height="40"/></svg>
